X: 7
T: Missa Malheur me bat / Credo
N: Derived from Agr1004c-Missa_Malheur_me_bat-Credo.krn
C: Alexander Agricola
%%abc-version 2.0
%%abcx-abcm2ps-target-version 5.9.1 (29 Sep 2008)
%%abc-creator hum2abc beta
%%abcx-conversion-date 2019/02/16 20:17:15
%%abc-edited-by Jesse Rodin
%%abc-edited-by Jesse Rodin; Megan K. Eagen 2013/04/23
%%abcx-initial-encoding-date 2013/04/23/
%%humdrum-veritas 691462052
%%humdrum-veritas-data 3261318961
%%linebreak <none>
%%barnumbers 0
L: 1/4
M: 2/1
Q: 1/2=120
%%staves [1 2 3 4]
V: 1 clef=treble
V: 2 clef=treble-8
V: 3 clef=treble-8
V: 4 clef=bass
K: C
[V:1] z8 | 
[V:2] B8 | 
[V:3] E8- | 
[V:4] z8 | 
[V:1] z8 | 
[V:2] c4B4 | 
[V:3] E8- | 
[V:4] z8 | 
[V:1] z8 | 
[V:2] G8 | 
[V:3] E8- | 
[V:4] B,8 | 
[V:1] z8 | 
[V:2] C4G2G2- | 
[V:3] E8 | 
[V:4] C4B,4 | 
[V:1] B8 | 
[V:2] GFEDE3F | 
[V:3] E8- | 
[V:4] G,8 | 
[V:1] c4B4 | 
[V:2] G8 | 
[V:3] E8 | 
[V:4] C,4G,2G,2- | 
[V:1] G4c4 | 
[V:2] E2C3DEF | 
[V:3] E8 | 
[V:4] G,F,E,D,C,2A,,2 | 
[V:1] B2B3AGF | 
[V:2] G2E2D2G2- | 
[V:3] B8 | 
[V:4] G,,4G,,4 | 
[V:1] E4D4- | 
[V:2] G2G3ABc | 
[V:3] c4B4 | 
[V:4] C,4G,,3A,, | 
[V:1] D2E3DG2- | 
[V:2] d2c3Bc2 | 
[V:3] G8 | 
[V:4] B,,2C,3D,E,2 | 
[V:1] G2^F2G4- | 
[V:2] d4B4- | 
[V:3] A4G4 | 
[V:4] D,4E,4 | 
[V:1] G4C4 | 
[V:2] B2e3dc2- | 
[V:3] E8 | 
[V:4] G,6F,E, | 
[V:1] D4E4- | 
[V:2] c2B2c4 | 
[V:3] F4E4 | 
[V:4] D,4C,4- | 
[V:1] E4F4 | 
[V:2] e4d4 | 
[V:3] C4D4 | 
[V:4] C,4_B,,4 | 
[V:1] E4D2C2- | 
[V:2] c4z4 | 
[V:3] E3FG2A2 | 
[V:4] C,4B,,2A,,2- | 
[V:1] C2B,2A,2D2- | 
[V:2] z4A4- | 
[V:3] E4F4 | 
[V:4] A,,2G,,2D,4 | 
[V:1] D2CB,C4 | 
[V:2] A8 | 
[V:3] E8 | 
[V:4] A,,8 | 
[V:1] D4E2F2- | 
[V:2] B4c2d2- | 
[V:3] z8 | 
[V:4] G,,4C,2_B,,2- | 
[V:1] F2E2D4 | 
[V:2] d2c4B2 | 
[V:3] z8 | 
[V:4] B,,2C,2G,,4 | 
[V:1] C4G4- | 
[V:2] c4z2c2- | 
[V:3] e8 | 
[V:4] C,8- | 
[V:1] G2G2G4 | 
[V:2] cdefg2c2- | 
[V:3] e8 | 
[V:4] C,4C,4- | 
[V:1] G4G4 | 
[V:2] c2BAG2c2 | 
[V:3] e4e4 | 
[V:4] C,2C,2C,4 | 
[V:1] A4G2A2- | 
[V:2] A2F2G2F2 | 
[V:3] c8 | 
[V:4] F,4E,2F,2- | 
[V:1] ABc2G2c2 | 
[V:2] A3Bc4 | 
[V:3] c8 | 
[V:4] F,G,A,2E,2A,2 | 
[V:1] B2A4GF | 
[V:2] z4F4 | 
[V:3] d8 | 
[V:4] G,2F,4E,D, | 
[V:1] G8 | 
[V:2] c6d2 | 
[V:3] e8- | 
[V:4] C,8 | 
[V:1] A4A4 | 
[V:2] c4c4 | 
[V:3] e8 | 
[V:4] A,,4A,,4 | 
[V:1] F4F4 | 
[V:2] d4d4 | 
[V:3] A8 | 
[V:4] D,4D,4 | 
[V:1] G2FED4 | 
[V:2] d4G4 | 
[V:3] B8 | 
[V:4] G,,4G,,4 | 
[V:1] C8 | 
[V:2] E4F2A2- | 
[V:3] c4c4 | 
[V:4] A,,6F,,2- | 
[V:1] z8 | 
[V:2] A2G4^F2 | 
[V:3] c8 | 
[V:4] F,,2G,,2A,,4 | 
[V:1] D6C2 | 
[V:2] G6A2 | 
[V:3] B8 | 
[V:4] G,,8 | 
[V:1] D4E4- | 
[V:2] B4B2c2- | 
[V:3] G8 | 
[V:4] G,4E,4 | 
[V:1] E2DCD4 | 
[V:2] cBAGF2A2 | 
[V:3] A8 | 
[V:4] F,3E,F,4 | 
[V:1] E4z4 | 
[V:2] G4G4 | 
[V:3] B4E4 | 
[V:4] E,4C,4 | 
[V:1] G6A2 | 
[V:2] c4G4 | 
[V:3] e8 | 
[V:4] C,2C,4C,2 | 
[V:1] B4B4 | 
[V:2] G4G4 | 
[V:3] d8 | 
[V:4] G,,4G,,4 | 
[V:1] c8 | 
[V:2] C4C4 | 
[V:3] c4c4 | 
[V:4] A,,4A,,4 | 
[V:1] B4B4 | 
[V:2] G4G2G2 | 
[V:3] d8 | 
[V:4] G,,8 | 
[V:1] A2B3AGF | 
[V:2] F2G3FG2 | 
[V:3] d8 | 
[V:4] z8 | 
[V:1] E6E2 | 
[V:2] A2G3FED | 
[V:3] c4c4 | 
[V:4] C,6C,2 | 
[V:1] E4E4 | 
[V:2] C4G4 | 
[V:3] c6c2 | 
[V:4] C,4C,4 | 
[V:1] D4D4 | 
[V:2] G3ABcd2- | 
[V:3] B4B4 | 
[V:4] G,,8 | 
[V:1] G4G4 | 
[V:2] d2G2d4 | 
[V:3] B8 | 
[V:4] G,,4G,,4 | 
[V:1] F3GA2F2- | 
[V:2] d4c2d2 | 
[V:3] A8 | 
[V:4] D,3E,F,2D,2- | 
[V:1] FDG4^F2 | 
[V:2] e4d4 | 
[V:3] B2c2A4 | 
[V:4] D,2C,2D,4 | 
[V:1] G6FE | 
[V:2] B4c4- | 
[V:3] G8 | 
[V:4] E,4C,4 | 
[V:1] D8 | 
[V:2] c2BAG3F | 
[V:3] z4B4 | 
[V:4] G,8 | 
[V:1] E8 | 
[V:2] G4G4 | 
[V:3] c4c4 | 
[V:4] C,8 | 
[V:1] D4G4- | 
[V:2] G4G4 | 
[V:3] B4e4- | 
[V:4] z4C,4- | 
[V:1] G2A2B2c2 | 
[V:2] G4G4 | 
[V:3] e2dcd4 | 
[V:4] C,4G,,4- | 
[V:1] d4B4 | 
[V:2] G4G2G2- | 
[V:3] B4B4 | 
[V:4] G,,2G,,2G,,4 | 
[V:1] A8 | 
[V:2] G2^FE^F4 | 
[V:3] c4c4 | 
[V:4] A,,8 | 
[V:1] B4G4 | 
[V:2] G8 | 
[V:3] B4e4- | 
[V:4] G,,4C,4- | 
[V:1] A4c4- | 
[V:2] z4C4 | 
[V:3] e2d2c4 | 
[V:4] C,2B,,2A,,4 | 
[V:1] c2BAB4 | 
[V:2] G8- | 
[V:3] d4d4 | 
[V:4] G,,8 | 
[V:1] c8 | 
[V:2] G4c4 | 
[V:3] c8 | 
[V:4] C,6B,,A,, | 
[V:1] z8 | 
[V:2] d4e4 | 
[V:3] B4c4- | 
[V:4] G,,2G,2E,2A,2- | 
[V:1] z8 | 
[V:2] c2d3ef2- | 
[V:3] c2B2A4- | 
[V:4] A,2G,2F,2D,2- | 
[V:1] z8 | 
[V:2] fed4^c2 | 
[V:3] A4G4 | 
[V:4] D,2F,2E,4 | 
[V:1] z4A4- | 
[V:2] d4e4 | 
[V:3] A4c4 | 
[V:4] D,2C,B,,A,,4 | 
[V:1] A4G4 | 
[V:2] e2e4e2- | 
[V:3] B8 | 
[V:4] E,4z2E,2 | 
[V:1] A4c4 | 
[V:2] e2d2e2g2- | 
[V:3] A3Bcde2- | 
[V:4] F,3E,C,4 | 
[V:1] B8 | 
[V:2] g2fed2g2- | 
[V:3] e2dcd4 | 
[V:4] G,4z2G,2 | 
[V:1] z4G4- | 
[V:2] g2f2g4 | 
[V:3] c4e4- | 
[V:4] A,3G,E,4 | 
[V:1] G2FEF2D2 | 
[V:2] G4z4 | 
[V:3] e4d4 | 
[V:4] B,4z2B,2 | 
[V:1] C2A,3B,CB,/C/ | 
[V:2] C8 | 
[V:3] e6dc | 
[V:4] C6B,A, | 
[V:1] D4E4 | 
[V:2] G6A2 | 
[V:3] B4c4 | 
[V:4] G,4C,4 | 
[V:1] D4G4 | 
[V:2] B4E4- | 
[V:3] B4G4- | 
[V:4] G,6A,2 | 
[V:1] z8 | 
[V:2] E2F2G3A | 
[V:3] G2A2B4 | 
[V:4] B,4E,3F, | 
[V:1] z4E3F | 
[V:2] B2c2B2A2 | 
[V:3] E3FG2A2 | 
[V:4] G,2A,2B,2C2 | 
[V:1] G2A2B2c2- | 
[V:2] G2F3EG2 | 
[V:3] B2c2d2e2- | 
[V:4] z2F,2D,2C,2- | 
[V:1] c2BAG4 | 
[V:2] E2F2G2E2 | 
[V:3] e2dcB4 | 
[V:4] C,2D,2E,4 | 
[V:1] A8 | 
[V:2] E4F4- | 
[V:3] A8- | 
[V:4] A,,4D,4- | 
[V:1] A6G2 | 
[V:2] F2EDE4 | 
[V:3] A8 | 
[V:4] D,4C,4 | 
[V:1] F6ED | 
[V:2] D2F4G2 | 
[V:3] z4A4 | 
[V:4] D,8 | 
[V:1] C4c4- | 
[V:2] A6GF | 
[V:3] c6d2 | 
[V:4] A,,6B,,2 | 
[V:1] c2BAG4- | 
[V:2] E6F2 | 
[V:3] e6d2 | 
[V:4] C,8 | 
[V:1] G2F2E3D | 
[V:2] G4A2c2- | 
[V:3] B4c4- | 
[V:4] z4A,,4- | 
[V:1] E4F4 | 
[V:2] cBAGA4 | 
[V:3] c2A2c4 | 
[V:4] A,,4F,,4 | 
[V:1] E2D4CB, | 
[V:2] G8 | 
[V:3] B8 | 
[V:4] G,,8 | 
[V:1] C3DEFG2- | 
[V:2] z4c4- | 
[V:3] E4E4 | 
[V:4] A,,3B,,C,D,E,2- | 
[V:1] GFE4D2 | 
[V:2] c4A4 | 
[V:3] E4F4 | 
[V:4] E,2C,2D,4 | 
[V:1] E8 | 
[V:2] A3GABc2- | 
[V:3] E8 | 
[V:4] A,,8 | 
[V:1] C4D4 | 
[V:2] cBA4G2 | 
[V:3] z8 | 
[V:4] A,,4_B,,4 | 
[V:1] C2A,2B,4 | 
[V:2] A4z4 | 
[V:3] z2A4G2 | 
[V:4] A,,4E,4 | 
[V:1] A,4z4 | 
[V:2] z2A4G2 | 
[V:3] A4B4 | 
[V:4] A,,4E,4 | 
[V:1] z8 | 
[V:2] A4B2c2- | 
[V:3] c4B2A2 | 
[V:4] A,,2A,2G,2E,2 | 
[V:1] z8 | 
[V:2] c2d3cc2- | 
[V:3] A4G2G2- | 
[V:4] F,2D,2E,2C,2 | 
[V:1] z4z2G2- | 
[V:2] c2B2c4 | 
[V:3] G2F2G4 | 
[V:4] D,4C,2E,2 | 
[V:1] G2F2G4 | 
[V:2] d3cB3A | 
[V:3] A4G4- | 
[V:4] D,4E,4 | 
[V:1] G4A4 | 
[V:2] G2E2F4 | 
[V:3] G2c4d2 | 
[V:4] z8 | 
[V:1] G8 | 
[V:2] E4z4 | 
[V:3] e8- | 
[V:4] C,8- | 
[V:1] G4G4 | 
[V:2] c4c4 | 
[V:3] e8 | 
[V:4] C,8- | 
[V:1] G4G4 | 
[V:2] c2c4c2 | 
[V:3] e4e4 | 
[V:4] C,8 | 
[V:1] G4D2G2- | 
[V:2] B4B4 | 
[V:3] d4d3c | 
[V:4] G,,8 | 
[V:1] G2FED4 | 
[V:2] G4G4 | 
[V:3] B4B4 | 
[V:4] G,,4G,3F, | 
[V:1] C4F4 | 
[V:2] A4A4 | 
[V:3] c4d4- | 
[V:4] E,D,E,2D,4 | 
[V:1] D4G4- | 
[V:2] B6AB | 
[V:3] d2c2B2A2 | 
[V:4] G,6F,2 | 
[V:1] G4E4 | 
[V:2] c2B2c2A2- | 
[V:3] G4c4- | 
[V:4] E,4C,4 | 
[V:1] F6ED | 
[V:2] AGFEF2EF | 
[V:3] c4B4 | 
[V:4] D,8 | 
[V:1] E8 | 
[V:2] G4c4 | 
[V:3] c4e4- | 
[V:4] C,8 | 
[V:1] z4G4- | 
[V:2] B4e4- | 
[V:3] e2dcB4- | 
[V:4] E,8- | 
[V:1] G4G4 | 
[V:2] e4e4 | 
[V:3] B8 | 
[V:4] E,8 | 
[V:1] A4B4 | 
[V:2] f4f4 | 
[V:3] d4d4 | 
[V:4] D,8 | 
[V:1] c6BA | 
[V:2] e6dc | 
[V:3] G4G4 | 
[V:4] C,6D,2 | 
[V:1] G4A4- | 
[V:2] B4A4 | 
[V:3] G3FD4 | 
[V:4] E,4F,4 | 
[V:1] A4G4 | 
[V:2] B8 | 
[V:3] G6G2- | 
[V:4] E,8 | 
[V:1] A6GA | 
[V:2] c8 | 
[V:3] G2FEF4 | 
[V:4] A,,8 | 
[V:1] B8 | 
[V:2] B4d4 | 
[V:3] G8 | 
[V:4] G,,8 | 
[V:1] z4G4 | 
[V:2] z4e4 | 
[V:3] z4G4 | 
[V:4] z4C,4 | 
[V:1] G8 | 
[V:2] e8 | 
[V:3] c8 | 
[V:4] C,8 | 
[V:1] G8 | 
[V:2] e8 | 
[V:3] c6B2 | 
[V:4] C,8 | 
[V:1] A6G2 | 
[V:2] c4A4- | 
[V:3] A2G2F4- | 
[V:4] F,6E,2 | 
[V:1] F4E4 | 
[V:2] A2B2c2A2 | 
[V:3] F2EDG2E2 | 
[V:4] D,4C,4 | 
[V:1] D8 | 
[V:2] _BAGFG4 | 
[V:3] FEDCD4 | 
[V:4] _B,,8 | 
[V:1] C4F4- | 
[V:2] A4d4- | 
[V:3] E4D4 | 
[V:4] A,,4_B,,4 | 
[V:1] F2E2E4- | 
[V:2] d2c2c4- | 
[V:3] E8 | 
[V:4] C,8 | 
[V:1] E4D4 | 
[V:2] c4B4 | 
[V:3] F8 | 
[V:4] D,8 | 
[V:1] E8 | 
[V:2] c6BA | 
[V:3] E8 | 
[V:4] C,8- | 
[V:1] E6DC | 
[V:2] G4A4 | 
[V:3] E6C2 | 
[V:4] C,8 | 
[V:1] D8 ||  
[V:2] B8 ||  
[V:3] G8 ||  
[V:4] G,,8 ||  
[V:1]  [K:C] [K:clef=treble][M:3/1]z4z4G4 | 
[V:2]  [K:C] [K:clef=treble-8][M:3/1]z12 | 
[V:3]  [K:C] [K:clef=treble-8][M:3/1]B4B4B4 | 
[V:4]  [K:C] [K:clef=bass][M:3/1]z12 | 
[V:1] G4G4A3G | 
[V:2] z12 | 
[V:3] c2Bc2B/A/B2A2d2- | 
[V:4] z12 | 
[V:1] F2E3DG3FF2- | 
[V:2] z12 | 
[V:3] d2c3BB3AA2 | 
[V:4] z12 | 
[V:1] FEE4D2E2D2- | 
[V:2] z12 | 
[V:3] _B2G2F4E2G2- | 
[V:4] z12 | 
[V:1] DCC3B,B,4A,2 | 
[V:2] z12 | 
[V:3] GA/G/A2B2zd2c/B/c2 | 
[V:4] z12 | 
[V:1] B,2zD2C/B,/C2B,2E2- | 
[V:2] z12 | 
[V:3] B4G2A2B2c2- | 
[V:4] z12 | 
[V:1] ED/C/D2C2G3F/E/F2 | 
[V:2] z12 | 
[V:3] cB/A/BGAFE2ze2d | 
[V:4] z12 | 
[V:1] E2A2G2c3BB2- | 
[V:2] z12 | 
[V:3] ec2B/A/B2A2d4 | 
[V:4] z12 | 
[V:1] B2A2B2d3cc2- | 
[V:2] z12 | 
[V:3] c3B/A/G3AB2c2 | 
[V:4] z12 | 
[V:1] c2B2c8 | 
[V:2] z12 | 
[V:3] d4c4z2c2 | 
[V:4] z12 | 
[V:1] z2c4B2A4 | 
[V:2] z12 | 
[V:3] B2A4G2F4 | 
[V:4] z12 | 
[V:1] G3AB2A3Gc2 | 
[V:2] z12 | 
[V:3] E2e2d3cf2e2 | 
[V:4] z12 | 
[V:1] BA2GB2AG2FA2 | 
[V:2] z12 | 
[V:3] d2fe2dc2ed2c | 
[V:4] z12 | 
[V:1] GF2EG2FE2DF2 | 
[V:2] z12 | 
[V:3] B2dc2BA3/B/cBAd- | 
[V:4] z12 | 
[V:1] E2A2G2EF2E2D | 
[V:2] z12 | 
[V:3] dc2B/A/BE2DEGF2 | 
[V:4] z12 | 
[V:1] E12 ||  
[V:2] z12 ||  
[V:3] E12 ||  
[V:4] z12 ||  
[V:1]  [K:C] [K:clef=treble][M:2/1]z8 | 
[V:2]  [K:C] [K:clef=treble-8][M:2/1]E8 | 
[V:3]  [K:C] [K:clef=treble-8][M:2/1]z8 | 
[V:4]  [K:C] [K:clef=bass][M:2/1]E,8- | 
[V:1] z8 | 
[V:2] G6A2 | 
[V:3] z8 | 
[V:4] E,8- | 
[V:1] z8 | 
[V:2] B4c4- | 
[V:3] z8 | 
[V:4] E,8- | 
[V:1] z8 | 
[V:2] c2B4AG | 
[V:3] z8 | 
[V:4] E,8 | 
[V:1] z8 | 
[V:2] A4D4 | 
[V:3] z8 | 
[V:4] F,8 | 
[V:1] z8 | 
[V:2] z4G4 | 
[V:3] z8 | 
[V:4] E,8 | 
[V:1] z8 | 
[V:2] A4c4- | 
[V:3] z8 | 
[V:4] A,,8 | 
[V:1] z8 | 
[V:2] c2B2A4 | 
[V:3] z8 | 
[V:4] C,6D,2 | 
[V:1] z8 | 
[V:2] G2FED4 | 
[V:3] z8 | 
[V:4] E,4F,4- | 
[V:1] z8 | 
[V:2] z2G4c2- | 
[V:3] z8 | 
[V:4] F,2E,4D,C, | 
[V:1] z8 | 
[V:2] cBBAB2d2- | 
[V:3] z8 | 
[V:4] D,4G,,4 | 
[V:1] z8 | 
[V:2] dcc3BBA | 
[V:3] z8 | 
[V:4] C,4D,4 | 
[V:1] z8 | 
[V:2] c4e4- | 
[V:3] z8 | 
[V:4] C,8 | 
[V:1] z8 | 
[V:2] e2d2B4 | 
[V:3] z8 | 
[V:4] G,8 | 
[V:1] z8 | 
[V:2] c6BA | 
[V:3] z8 | 
[V:4] A,8 | 
[V:1] z8 | 
[V:2] B4E4 | 
[V:3] z8 | 
[V:4] G,8- | 
[V:1] z8 | 
[V:2] z4B4 | 
[V:3] z8 | 
[V:4] G,8 | 
[V:1] z8 | 
[V:2] A4c4- | 
[V:3] z8 | 
[V:4] z4A,4- | 
[V:1] z8 | 
[V:2] c2B2e4- | 
[V:3] z8 | 
[V:4] A,2G,2E,4 | 
[V:1] z8 | 
[V:2] e4d4 | 
[V:3] z8 | 
[V:4] F,8 | 
[V:1] z8 | 
[V:2] e4E4 | 
[V:3] z8 | 
[V:4] E,8 | 
[V:1] z8 | 
[V:2] D4G4 | 
[V:3] z8 | 
[V:4] z4E,4 | 
[V:1] z8 | 
[V:2] z2B2A2d2- | 
[V:3] z8 | 
[V:4] C,4F,4- | 
[V:1] z8 | 
[V:2] d2c4A2 | 
[V:3] z8 | 
[V:4] F,2E,2A,4- | 
[V:1] z8 | 
[V:2] c2d2B4 | 
[V:3] z8 | 
[V:4] A,2G,F,G,4 | 
[V:1] z8 | 
[V:2] ABcdc2BA | 
[V:3] z8 | 
[V:4] A,6G,F, | 
[V:1] z8 | 
[V:2] BAGFE2F2- | 
[V:3] z8 | 
[V:4] G,F,E,D,C,2D,2- | 
[V:1] z8 | 
[V:2] FDG4^F2 | 
[V:3] z8 | 
[V:4] D,2C,B,,A,,4 | 
[V:1] z8 | 
[V:2] G4E2G2- | 
[V:3] z8 | 
[V:4] G,,4G,4 | 
[V:1] z8 | 
[V:2] GAB3AG2- | 
[V:3] z8 | 
[V:4] E,2G,4E,2 | 
[V:1] z8 | 
[V:2] GFE4D2 | 
[V:3] z8 | 
[V:4] G,3A,F,4 | 
[V:1] z8 | 
[V:2] E4z4 | 
[V:3] z8 | 
[V:4] E,8 | 
[V:1] z8 | 
[V:2] B8 | 
[V:3] z8 | 
[V:4] z4E,4- | 
[V:1] z8 | 
[V:2] G4c4- | 
[V:3] z8 | 
[V:4] E,4C,4 | 
[V:1] z8 | 
[V:2] c2B2A2G2 | 
[V:3] z8 | 
[V:4] F,6E,2 | 
[V:1] z8 | 
[V:2] F2EFG2A2 | 
[V:3] z8 | 
[V:4] D,2C,2B,,2A,,B,, | 
[V:1] z8 | 
[V:2] GAB2c2Bc | 
[V:3] z8 | 
[V:4] C,2D,2C,D,E,2 | 
[V:1] z8 | 
[V:2] d2e2dBc2 | 
[V:3] z8 | 
[V:4] F,2E,F,G,2A,2 | 
[V:1] z8 | 
[V:2] B2A2B2G2 | 
[V:3] z8 | 
[V:4] G,E,F,2G,2E,2 | 
[V:1] z8 | 
[V:2] A2d4B2- | 
[V:3] z8 | 
[V:4] D,4G,4 | 
[V:1] z8 | 
[V:2] B2G4c2 | 
[V:3] z8 | 
[V:4] E,4C,4 | 
[V:1] z8 | 
[V:2] B2A2BAGF | 
[V:3] z8 | 
[V:4] D,8 | 
[V:1] z8 | 
[V:2] E2A4G2- | 
[V:3] z8 | 
[V:4] C,6B,,2 | 
[V:1] z8 | 
[V:2] G2F4E2 | 
[V:3] z8 | 
[V:4] C,2A,,2G,,4 | 
[V:1] z8 | 
[V:2] F2A3Bc2- | 
[V:3] z8 | 
[V:4] F,,4F,4 | 
[V:1] z8 | 
[V:2] c2BAB4 | 
[V:3] z8 | 
[V:4] E,2A,4^G,2 | 
[V:1] z8 | 
[V:2] z2A2c4- | 
[V:3] z8 | 
[V:4] A,4z2A,2- | 
[V:1] z8 | 
[V:2] c2BAB2A2- | 
[V:3] z8 | 
[V:4] A,2G,F,G,2A,2 | 
[V:1] z8 | 
[V:2] A2GFG2F2- | 
[V:3] z8 | 
[V:4] F,2E,D,E,2F,2 | 
[V:1] z8 | 
[V:2] F2EDE2F2 | 
[V:3] z8 | 
[V:4] D,2C,B,,C,2D,2 | 
[V:1] z8 | 
[V:2] E2DCD2C2- | 
[V:3] z8 | 
[V:4] C,2B,,A,,B,,2C,2 | 
[V:1] z8 | 
[V:2] C2B,A,B,2A,2- | 
[V:3] z8 | 
[V:4] A,,2G,,F,,G,,2A,,2 | 
[V:1] z8 | 
[V:2] A,2A4^G2 | 
[V:3] z8 | 
[V:4] C,2D,2B,,4 | 
[V:1] z8 ||  
[V:2] A8 ||  
[V:3] z8 ||  
[V:4] A,,8 ||  
[V:1]  [K:C] [K:clef=treble][M:2/1]z4E4 | 
[V:2]  [K:C] [K:clef=treble-8][M:2/1]B4c4 | 
[V:3]  [K:C] [K:clef=treble-8][M:2/1]z8 | 
[V:4]  [K:C] [K:clef=bass][M:2/1]z8 | 
[V:1] F4G4 | 
[V:2] d4B4 | 
[V:3] z8 | 
[V:4] z8 | 
[V:1] E4F4 | 
[V:2] c4d4 | 
[V:3] z8 | 
[V:4] z8 | 
[V:1] G8 | 
[V:2] e4d2cB | 
[V:3] z4B4 | 
[V:4] z8 | 
[V:1] A4z4 | 
[V:2] A2F4G2- | 
[V:3] c4d4 | 
[V:4] z8 | 
[V:1] z8 | 
[V:2] GFEDE2F2- | 
[V:3] B4c4 | 
[V:4] z4A,,4 | 
[V:1] z8 | 
[V:2] F2G4A2- | 
[V:3] d4e4- | 
[V:4] B,,4C,4 | 
[V:1] z8 | 
[V:2] AGFED2d2- | 
[V:3] e4z4 | 
[V:4] A,,4B,,4 | 
[V:1] z8 | 
[V:2] d2c4BA | 
[V:3] e4f4 | 
[V:4] C,4D,4 | 
[V:1] z8 | 
[V:2] G2F2A2B2 | 
[V:3] e2f3ed2- | 
[V:4] z4D,4 | 
[V:1] z4A4 | 
[V:2] G4F4 | 
[V:3] d^c^c2d4- | 
[V:4] E,4D,4- | 
[V:1] A4A4 | 
[V:2] F4F4 | 
[V:3] d4A4 | 
[V:4] D,4D,4 | 
[V:1] c6c2 | 
[V:2] E6E2 | 
[V:3] A6GF | 
[V:4] A,,4A,,4- | 
[V:1] c4c4- | 
[V:2] E4e4 | 
[V:3] E2C3DEF | 
[V:4] A,,2A,,2A,,4- | 
[V:1] c2BAB2G2- | 
[V:2] c4d4 | 
[V:3] E2C2G4 | 
[V:4] A,,4G,,4 | 
[V:1] G2E2E4- | 
[V:2] e3dc3B | 
[V:3] E4G4 | 
[V:4] C,8 | 
[V:1] E2DCD4 | 
[V:2] A8- | 
[V:3] F8 | 
[V:4] D,8 | 
[V:1] C8 | 
[V:2] A4A4 | 
[V:3] E4E4- | 
[V:4] A,,8 | 
[V:1] C4C4- | 
[V:2] A6A2 | 
[V:3] E2E2E4 | 
[V:4] A,,4A,,4- | 
[V:1] C2C2C4 | 
[V:2] A4A4 | 
[V:3] z2E2A4 | 
[V:4] A,,2A,,2A,,4 | 
[V:1] z2C2E4 | 
[V:2] c4c4 | 
[V:3] A4G4 | 
[V:4] A,,4C,4 | 
[V:1] E4D4 | 
[V:2] G4G4 | 
[V:3] z2G2B4 | 
[V:4] C,4G,,4 | 
[V:1] z2D2F4 | 
[V:2] d4d4 | 
[V:3] B4A4 | 
[V:4] G,,4D,4 | 
[V:1] F4E4 | 
[V:2] A4A4 | 
[V:3] z2A2c4 | 
[V:4] D,4A,,4 | 
[V:1] z2E2G4 | 
[V:2] e2e4dc | 
[V:3] c4B4 | 
[V:4] A,,4E,4 | 
[V:1] G4F4 | 
[V:2] B2G2A3G | 
[V:3] z2B2d4 | 
[V:4] E,4D,4 | 
[V:1] z2F2A4 | 
[V:2] F2D2E2F2 | 
[V:3] d4c4- | 
[V:4] B,,4A,,4 | 
[V:1] A4G3A | 
[V:2] E2F2E2C2 | 
[V:3] c2BAB2c2 | 
[V:4] A,,4E,4 | 
[V:1] B2c3BB2- | 
[V:2] D2G2A2B2 | 
[V:3] B2e2c2d2- | 
[V:4] D,2C,2A,,2G,,2- | 
[V:1] BAA4^G2 | 
[V:2] G2F2G3E | 
[V:3] dAc2B4 | 
[V:4] G,,2A,,2E,4 | 
[V:1] A6GF | 
[V:2] E2F4ED | 
[V:3] A8 | 
[V:4] A,,8 | 
[V:1] E4F2G2 | 
[V:2] C2G2A2B2 | 
[V:3] z8 | 
[V:4] z8 | 
[V:1] F2D2E4 | 
[V:2] A2d4c2 | 
[V:3] z4z2A2 | 
[V:4] z8 | 
[V:1] D2G3FA2- | 
[V:2] d3cBAc2 | 
[V:3] B3AG2F2 | 
[V:4] z8 | 
[V:1] AGG4^F2 | 
[V:2] G4A4 | 
[V:3] E4D4 | 
[V:4] z4z2D,2 | 
[V:1] G8 | 
[V:2] G3FEDG2- | 
[V:3] z8 | 
[V:4] E,3D,C,2B,,2 | 
[V:1] z8 | 
[V:2] G2^F2G4 | 
[V:3] z2A2B3A | 
[V:4] A,,4G,,4 | 
[V:1] z8 | 
[V:2] z8 | 
[V:3] G2F2E4 | 
[V:4] z2D,4C,2 | 
[V:1] z8 | 
[V:2] z8 | 
[V:3] D4z2A2- | 
[V:4] D,3C,A,,2C,2 | 
[V:1] z8 | 
[V:2] z8 | 
[V:3] A2G2A3G | 
[V:4] B,,4A,,4 | 
[V:1] z8 | 
[V:2] z8 | 
[V:3] FEF2E2e2- | 
[V:4] A,3G,G,F,A,2 | 
[V:1] z8 | 
[V:2] z8 | 
[V:3] eddce2c2- | 
[V:4] F,4E,4 | 
[V:1] z8 | 
[V:2] z8 | 
[V:3] c2B3Ad2- | 
[V:4] F,2G,3F,F,E, | 
[V:1] z8 | 
[V:2] z8 | 
[V:3] dcc3BBA | 
[V:4] G,2E,2D,4 | 
[V:1] z8 | 
[V:2] E8 | 
[V:3] c2BAG4 | 
[V:4] C,6B,,A,, | 
[V:1] z8 | 
[V:2] B8 | 
[V:3] z2G3FED | 
[V:4] G,,8 | 
[V:1] E8 | 
[V:2] c8 | 
[V:3] C2A,2A4 | 
[V:4] z8 | 
[V:1] B8 | 
[V:2] B4G4 | 
[V:3] GABcd2G2- | 
[V:4] z8 | 
[V:1] c8 | 
[V:2] A8 | 
[V:3] G2FEF2E2 | 
[V:4] A,,8 | 
[V:1] B4G4 | 
[V:2] G6E2 | 
[V:3] G3AB2c2- | 
[V:4] E,8 | 
[V:1] A8 | 
[V:2] D3ED4 | 
[V:3] cBAGF4 | 
[V:4] F,8 | 
[V:1] G4E4 | 
[V:2] E2C4c2- | 
[V:3] G6A2- | 
[V:4] E,4C,4 | 
[V:1] F8 | 
[V:2] c2BAB4 | 
[V:3] AGFEF4 | 
[V:4] D,8 | 
[V:1] E4z4 | 
[V:2] c6B2- | 
[V:3] G4z4 | 
[V:4] C,6D,2 | 
[V:1] z4D4 | 
[V:2] BAA4^G2 | 
[V:3] z8 | 
[V:4] E,2C,2B,,4 | 
[V:1] C3DEFG2- | 
[V:2] A4G2E2- | 
[V:3] E8 | 
[V:4] A,,4z4 | 
[V:1] G2FED4 | 
[V:2] E2F2G4 | 
[V:3] B8 | 
[V:4] z4G,,4 | 
[V:1] C4E4 | 
[V:2] E6F2 | 
[V:3] c8 | 
[V:4] A,,3B,,C,4 | 
[V:1] D4G4- | 
[V:2] G6FE | 
[V:3] B4G4 | 
[V:4] G,,8 | 
[V:1] G2F2F4- | 
[V:2] D4d4- | 
[V:3] A8 | 
[V:4] D,8 | 
[V:1] F2E2E4- | 
[V:2] d2B2c4 | 
[V:3] G6FE | 
[V:4] E,4C,4 | 
[V:1] E2DCDCB,A, | 
[V:2] A8 | 
[V:3] F4F4 | 
[V:4] D,6E,F, | 
[V:1] G,2G4E2 | 
[V:2] B4c4- | 
[V:3] E3FG2A2- | 
[V:4] G,4C,4 | 
[V:1] F2G2A2E2 | 
[V:2] c2B2A2B2 | 
[V:3] AGE2F2G2 | 
[V:4] z8 | 
[V:1] F2E4D2 | 
[V:2] cBAGA4 | 
[V:3] A2E2F4 | 
[V:4] z4F,,4 | 
[V:1] E4z4 | 
[V:2] G4c4 | 
[V:3] E8 | 
[V:4] C,6D,2 | 
[V:1] G4G4 | 
[V:2] B2c4BA | 
[V:3] z4e4 | 
[V:4] E,4C,3D, | 
[V:1] G2A4G2 | 
[V:2] G2F2A2B2 | 
[V:3] c4d2e2- | 
[V:4] E,2F,4E,2 | 
[V:1] E4D2G2- | 
[V:2] c4z2B2 | 
[V:3] e2A2B4 | 
[V:4] C,4D,2E,2- | 
[V:1] G2A2B4 | 
[V:2] e4d2B2 | 
[V:3] c4B2G2- | 
[V:4] E,2F,2G,4 | 
[V:1] E4z4 | 
[V:2] c4B4- | 
[V:3] G2A2B4 | 
[V:4] C,4G,4 | 
[V:1] z8 | 
[V:2] B2G2G4 | 
[V:3] E2e4dc | 
[V:4] G,4E,4 | 
[V:1] z4B4 | 
[V:2] A4B2G2- | 
[V:3] dcBAG3A | 
[V:4] F,4E,4 | 
[V:1] G2A2B2c2- | 
[V:2] G2F2G2C2 | 
[V:3] B2c2B2e2- | 
[V:4] z8 | 
[V:1] cBB4A2 | 
[V:2] z2G3FFE | 
[V:3] edB2c4 | 
[V:4] G,,4A,,4 | 
[V:1] B2c3Bd2- | 
[V:2] G4z4 | 
[V:3] B2e3df2 | 
[V:4] G,,2C,4B,,2 | 
[V:1] dcc4B2 | 
[V:2] C4G3F | 
[V:3] e2c2d4 | 
[V:4] C,2A,,2G,,4 | 
[V:1] c4z4 | 
[V:2] EDC2D4 | 
[V:3] z2c4B2 | 
[V:4] A,,4G,,4 | 
[V:1] z2c4B2 | 
[V:2] C4z4 | 
[V:3] c2A4G2 | 
[V:4] A,,4E,4 | 
[V:1] c2A4G2 | 
[V:2] E2F2G4 | 
[V:3] A2c2B4 | 
[V:4] C,2A,,2E,4 | 
[V:1] A2c2B4 | 
[V:2] E2C2G4 | 
[V:3] A2e4d2 | 
[V:4] A,,4z4 | 
[V:1] A2c4BA | 
[V:2] A4F4 | 
[V:3] c2e4d2 | 
[V:4] z8 | 
[V:1] G6FE | 
[V:2] E4G4- | 
[V:3] e2e4dc | 
[V:4] C,4C,D,E,F, | 
[V:1] D2G2A2B2- | 
[V:2] G4E4 | 
[V:3] B2c2B2G2- | 
[V:4] G,2C,2G,3A, | 
[V:1] Bcd2B2c2- | 
[V:2] z8 | 
[V:3] GAB2E2e2- | 
[V:4] B,4G,2A,2- | 
[V:1] c2BA^G3^F | 
[V:2] z4e4 | 
[V:3] e2dcB4 | 
[V:4] A,G,A,2E,4 | 
[V:1] A6GF | 
[V:2] c4A4 | 
[V:3] A2c4d2 | 
[V:4] F,4F,4 | 
[V:1] G8- | 
[V:2] B2c2d2e2- | 
[V:3] e3dB2c2- | 
[V:4] E,4z4 | 
[V:1] G8 | 
[V:2] e2dcd2G2- | 
[V:3] c2BAB4 | 
[V:4] z8 | 
[V:1] G4E2G2- | 
[V:2] GAB2c2B2 | 
[V:3] E4E4 | 
[V:4] z8 | 
[V:1] GFE4D2 | 
[V:2] B2G2A3B | 
[V:3] E4F4 | 
[V:4] z8 | 
[V:1] E4E4 | 
[V:2] cdc3Bc2 | 
[V:3] E4z2A2- | 
[V:4] A,,4A,,4 | 
[V:1] z4z2A2- | 
[V:2] d4c4 | 
[V:3] A2G2A4 | 
[V:4] B,,4A,,4 | 
[V:1] A2G2A4 | 
[V:2] z2G4F2 | 
[V:3] B4c4 | 
[V:4] E,4z4 | 
[V:1] B4c4 | 
[V:2] GFEDC2A,2 | 
[V:3] B2G2A4 | 
[V:4] z2G,4F,2 | 
[V:1] B2G2A4 | 
[V:2] E4z2d2- | 
[V:3] G2G4F2 | 
[V:4] G,2E,2D,4 | 
[V:1] G2G4^F2 | 
[V:2] d2c2d4 | 
[V:3] G4A4 | 
[V:4] E,4D,4 | 
[V:1] G8 | 
[V:2] B2e3dcB | 
[V:3] G4G2c2- | 
[V:4] E,4E,4 | 
[V:1] A4G4 | 
[V:2] A4B2c2 | 
[V:3] c2d2e4 | 
[V:4] F,4E,2C,2 | 
[V:1] G2A4GF | 
[V:2] B2d4A2- | 
[V:3] e2f4ed | 
[V:4] E,2D,3E,F,G, | 
[V:1] E2A2G2F2- | 
[V:2] ABcde2f2 | 
[V:3] c4c2d2- | 
[V:4] A,2F,2E,2D,2 | 
[V:1] F2E2D4 | 
[V:2] d2c2B2G2- | 
[V:3] dcA2B4 | 
[V:4] _B,,2C,2G,,4 | 
[V:1] z4C4 | 
[V:2] G2G4A2- | 
[V:3] c8 | 
[V:4] C,3D,E,2F,2- | 
[V:1] D4E4 | 
[V:2] A2GFE4 | 
[V:3] z4c4 | 
[V:4] F,2E,D,C,4 | 
[V:1] F4G4 | 
[V:2] D4C2c2- | 
[V:3] d4e4 | 
[V:4] z4C,4 | 
[V:1] G4G2A2- | 
[V:2] c2BAG2F2 | 
[V:3] c3de2f2- | 
[V:4] C,4z4 | 
[V:1] AGc4B2 | 
[V:2] D2E2F2G2 | 
[V:3] fedcd4 | 
[V:4] z4z2G,,2 | 
[V:1] c4z4 | 
[V:2] E2C2D2G2 | 
[V:3] c2c4B2 | 
[V:4] A,,4G,,4 | 
[V:1] z2A4G2 | 
[V:2] A2c2B4 | 
[V:3] c4z4 | 
[V:4] z2A,,2E,4 | 
[V:1] A2c2B2c2- | 
[V:2] A4z4 | 
[V:3] c4d2e2- | 
[V:4] F,3E,D,2C,2- | 
[V:1] c2BAG2A2- | 
[V:2] E2F2G2E2 | 
[V:3] e2dcB2c2- | 
[V:4] C,2D,2E,2A,,2- | 
[V:1] A2GFE2F2- | 
[V:2] C2D2E2C2 | 
[V:3] c2BAG2A2- | 
[V:4] A,,2B,,2C,2F,,2- | 
[V:1] FEE4D2 | 
[V:2] c3BAGA2- | 
[V:3] AGE2F4 | 
[V:4] F,,2C,2D,4 | 
[V:1] E8- | 
[V:2] A2G2A2c2 | 
[V:3] E8- | 
[V:4] A,,2C,3B,,A,,2 | 
[V:1] E8- | 
[V:2] B2c4BA | 
[V:3] E8- | 
[V:4] G,,2A,,4G,,F,, | 
[V:1] E8 |]  
[V:2] B8 |]  
[V:3] E8 |]  
[V:4] E,,8 |]  



